icons/male_and_female.svg

<svg width="48" height="48" viewBox="0 0 48 48" fill="none" xmlns="http://www.w3.org/2000/svg">
<path fill-rule="evenodd" clip-rule="evenodd" d="M14.5 14C16.7091 14 18.5 12.2091 18.5 10C18.5 7.79086 16.7091 6 14.5 6C12.2909 6 10.5 7.79086 10.5 10C10.5 12.2091 12.2909 14 14.5 14ZM14.5 12C15.6046 12 16.5 11.1046 16.5 10C16.5 8.89543 15.6046 8 14.5 8C13.3954 8 12.5 8.89543 12.5 10C12.5 11.1046 13.3954 12 14.5 12Z" fill="black"/>
<path fill-rule="evenodd" clip-rule="evenodd" d="M9.37023 16.8415C10.3616 16.2453 11.4552 16 12.5458 16H16.4542C17.5448 16 18.6384 16.2453 19.6298 16.8415C20.619 17.4364 21.329 18.2739 21.8214 19.1838C22.7505 20.9006 23 23.0478 23 25.1435V25.2321C23 25.2617 22.9987 25.2912 22.9961 25.3206L22.9882 25.4088L22.9874 25.4224C22.9868 25.4327 22.9862 25.4468 22.9856 25.4657C22.9844 25.5038 22.9833 25.5553 22.9827 25.6231C22.9814 25.7589 22.9819 25.9482 22.9846 26.2059C22.9858 26.3209 22.9873 26.4452 22.989 26.5785L22.989 26.5821C22.994 26.9889 23 27.4753 23 28C23 29.6569 21.6569 31 20 31C19.8299 31 19.6628 30.9858 19.5 30.9584V39.5C19.5 40.8228 18.4696 41.9166 17.1492 41.9955C15.8288 42.0745 14.6754 41.1112 14.5178 39.7979L14.5 39.6495L14.4822 39.7979C14.3246 41.1112 13.1712 42.0745 11.8508 41.9955C10.5304 41.9166 9.5 40.8228 9.5 39.5V30.9584C9.33718 30.9858 9.17011 31 9 31C7.34315 31 6 29.6569 6 28C6 27.4745 6.006 26.9877 6.01101 26.5805L6.01104 26.5787C6.01268 26.4454 6.01421 26.3209 6.01541 26.2059C6.01809 25.9482 6.01856 25.7589 6.0173 25.6231C6.01667 25.5553 6.01564 25.5038 6.01439 25.4657C6.01378 25.4468 6.01315 25.4327 6.0126 25.4224L6.01175 25.4087L6.00392 25.3206C6.00131 25.2912 6 25.2617 6 25.2321V25.1435C6.00002 23.0478 6.24949 20.9006 7.17857 19.1838C7.67098 18.2739 8.381 17.4364 9.37023 16.8415ZM20 29C19.8162 29 19.6468 28.9513 19.5007 28.8668L19.5 23H17.5V39.5C17.5 39.7645 17.2939 39.9833 17.0298 39.9991C16.7658 40.0149 16.5351 39.8222 16.5036 39.5596L15.4929 31.1372C15.4326 30.6346 15.0062 30.2563 14.5 30.2563C13.9938 30.2563 13.5674 30.6346 13.5071 31.1372L12.4964 39.5596C12.4649 39.8222 12.2342 40.0149 11.9702 39.9991C11.7061 39.9833 11.5 39.7645 11.5 39.5L11.5 23H9.5L9.49928 28.8668C9.35321 28.9513 9.1838 29 9 29C8.44772 29 8 28.5523 8 28C8 27.4876 8.00586 27.011 8.0109 26.6025C8.01253 26.4699 8.01408 26.3439 8.0153 26.2267C8.02053 25.7244 8.01897 25.4014 8.00392 25.232L8 25.1878V25.1435C8.00002 23.1478 8.2491 21.4078 8.93751 20.1357C9.29111 19.4823 9.77026 18.9347 10.401 18.5554C11.0324 18.1757 11.757 18 12.5458 18H16.4542C17.243 18 17.9676 18.1757 18.599 18.5554C19.2297 18.9347 19.7089 19.4823 20.0625 20.1357C20.7509 21.4078 21 23.1478 21 25.1435V25.1878L20.9961 25.232C20.981 25.4014 20.9795 25.7244 20.9847 26.2267C20.9859 26.3423 20.9874 26.4674 20.9891 26.5982L20.9891 26.6031C20.9941 27.0116 21 27.4875 21 28C21 28.5523 20.5523 29 20 29Z" fill="black"/>
<path fill-rule="evenodd" clip-rule="evenodd" d="M37.9999 10C37.9999 12.2091 36.209 14 33.9999 14C31.7907 14 29.9999 12.2091 29.9999 10C29.9999 7.79086 31.7907 6 33.9999 6C36.209 6 37.9999 7.79086 37.9999 10ZM35.9999 10C35.9999 11.1046 35.1044 12 33.9999 12C32.8953 12 31.9999 11.1046 31.9999 10C31.9999 8.89543 32.8953 8 33.9999 8C35.1044 8 35.9999 8.89543 35.9999 10Z" fill="black"/>
<path fill-rule="evenodd" clip-rule="evenodd" d="M37.4461 16.4437C36.6595 16.0476 35.9089 16.0001 35.4786 16L35.016 16.0002L35.0089 16.0001L31.5209 16.0002C31.0911 16.0003 30.3407 16.0478 29.5541 16.4439C28.2233 17.1139 27.4638 18.2111 27.0127 19.1805C26.5813 20.1075 26.3326 21.1339 26.148 21.9882C25.9727 22.7992 25.9684 22.8204 25.8686 23.333C25.7732 23.8232 25.5866 24.7823 25.059 27.4096C24.7329 29.034 25.7853 30.6153 27.4097 30.9415C27.6698 30.9937 27.9286 31.0105 28.1813 30.9954L27.6421 34.0956C27.4928 34.9544 27.926 35.8919 28.8521 36.2222C29.7595 36.5458 31.4043 37 33.4999 37C35.5954 37 37.2402 36.5458 38.1476 36.2222C39.0737 35.8919 39.5069 34.9544 39.3576 34.0956L38.8184 30.9952C39.0713 31.0104 39.3303 30.9935 39.5905 30.9413C41.2149 30.6151 42.2673 29.0338 41.9412 27.4094C41.4135 24.7816 41.2268 23.8223 41.1314 23.3322C41.0317 22.8196 41.0275 22.799 40.8522 21.988C40.6676 21.1337 40.4189 20.1073 39.9875 19.1803C39.5364 18.211 38.7769 17.1138 37.4461 16.4437ZM34.9983 18.0002L35.4783 18C35.7631 18.0001 36.1574 18.034 36.5467 18.23C37.3397 18.6293 37.837 19.2996 38.1742 20.0242C38.5044 20.7338 38.716 21.5715 38.8974 22.4106C39.0697 23.2079 39.0721 23.2201 39.166 23.7025L39.1683 23.7142C39.2645 24.2085 39.4518 25.1713 39.9803 27.8031C40.089 28.3446 39.7382 28.8717 39.1967 28.9804C38.9454 29.0309 38.6967 28.9828 38.491 28.861L37.3048 22.3372L35.3371 22.695L35.9627 26.1356L35.9386 26.109L37.3759 34.3734C36.6028 34.6394 35.2332 35 33.4999 35C31.7665 35 30.397 34.6394 29.6238 34.3734L31.0605 26.1129L31.0364 26.1395L31.6626 22.695L29.6949 22.3372L28.5086 28.8615C28.303 28.983 28.0545 29.031 27.8035 28.9806C27.262 28.8719 26.9112 28.3448 27.0199 27.8033C27.5484 25.1714 27.7357 24.2087 27.8319 23.7144L27.8342 23.7026C27.9281 23.2203 27.9305 23.2081 28.1028 22.4108C28.2842 21.5716 28.4958 20.7339 28.826 20.0243C29.1632 19.2997 29.6605 18.6295 30.4535 18.2302C30.8428 18.0342 31.2369 18.0003 31.5216 18.0002L34.9908 18.0001L34.9983 18.0002Z" fill="black"/>
<path d="M30.2853 41.9131C29.5474 41.8064 28.9999 41.1741 28.9999 40.4285V38C30.3055 38.1798 31.5072 38.2909 32.682 38.3349L31.9385 40.8533C31.7274 41.5683 31.0232 42.0197 30.2853 41.9131Z" fill="black"/>
<path d="M34.2651 38.3537L35.0706 40.8836C35.2949 41.5882 35.9994 42.0243 36.7301 41.9107C37.4609 41.7972 37.9999 41.168 37.9999 40.4285V38.0921C36.6893 38.2491 35.4729 38.3369 34.2651 38.3537Z" fill="black"/>
</svg>

<svg
  xmlns="http://www.w3.org/2000/svg"
  width="24"
  height="24"
  viewBox="0 0 24 24"
  fill="none"
  stroke="currentColor"
  stroke-width="2"
  stroke-linecap="round"
  stroke-linejoin="round"
>
  <path
    fill-rule="evenodd"
    d="M14.5 14a4 4 0 1 0 0-8 4 4 0 0 0 0 8m0-2a2 2 0 1 0 0-4 2 2 0 0 0 0 4"
    clip-rule="evenodd"
  />
  <path
    fill-rule="evenodd"
    d="M9.37 16.842c.992-.597 2.085-.842 3.176-.842h3.908c1.09 0 2.184.245 3.176.841.989.595 1.699 1.433 2.191 2.343.93 1.717 1.179 3.864 1.179 5.96v.088q0 .045-.004.089l-.008.088v.013l-.002.044q-.003.057-.003.157c-.002.136-.001.325.002.583q0 .173.004.372v.004c.005.407.011.893.011 1.418a3 3 0 0 1-3.5 2.958V39.5a2.5 2.5 0 0 1-4.982.298l-.018-.148-.018.148A2.5 2.5 0 0 1 9.5 39.5v-8.542Q9.255 31 9 31a3 3 0 0 1-3-3c0-.526.006-1.012.011-1.42v-.001l.004-.373a31 31 0 0 0 0-.74l-.002-.044-.001-.013-.008-.088L6 25.232v-.088c0-2.096.25-4.243 1.179-5.96.492-.91 1.202-1.748 2.191-2.343M20 29a1 1 0 0 1-.5-.133V23h-2v16.5a.5.5 0 0 1-.996.06l-1.011-8.423a1 1 0 0 0-1.986 0l-1.01 8.423a.5.5 0 0 1-.997-.06V23h-2v5.867A1 1 0 0 1 8 28c0-.512.006-.989.01-1.398q.004-.199.005-.375c.006-.503.004-.826-.011-.995L8 25.188v-.044c0-1.996.25-3.736.938-5.008.353-.654.832-1.201 1.463-1.58.631-.38 1.356-.556 2.145-.556h3.908c.789 0 1.514.176 2.145.555.63.38 1.11.927 1.463 1.58.689 1.273.938 3.013.938 5.008v.045l-.004.044c-.015.17-.016.492-.011.995q0 .173.004.371v.005c.005.409.011.884.011 1.397a1 1 0 0 1-1 1"
    clip-rule="evenodd"
  />
  <path
    fill-rule="evenodd"
    d="M38 10a4 4 0 1 1-8 0 4 4 0 0 1 8 0m-2 0a2 2 0 1 1-4 0 2 2 0 0 1 4 0"
    clip-rule="evenodd"
  />
  <path
    fill-rule="evenodd"
    d="M37.446 16.444A4.35 4.35 0 0 0 35.48 16H31.52c-.43 0-1.18.048-1.967.444-1.33.67-2.09 1.767-2.541 2.736-.432.928-.68 1.954-.865 2.808-.175.811-.18.832-.28 1.345-.095.49-.281 1.45-.809 4.077a3 3 0 0 0 3.122 3.585l-.539 3.1c-.15.86.284 1.797 1.21 2.127.907.324 2.552.778 4.648.778s3.74-.454 4.648-.778c.926-.33 1.359-1.268 1.21-2.126l-.54-3.1a3.005 3.005 0 0 0 3.123-3.587c-.528-2.627-.714-3.587-.81-4.077-.1-.512-.103-.533-.279-1.344-.184-.854-.433-1.88-.864-2.808-.452-.969-1.211-2.066-2.542-2.736M34.998 18h.48c.285 0 .68.034 1.069.23.793.4 1.29 1.07 1.627 1.794.33.71.542 1.547.723 2.387.173.797.175.81.269 1.291l.002.012c.096.495.284 1.457.812 4.09a1 1 0 0 1-1.489 1.057l-1.186-6.524-1.968.358.626 3.44-.024-.026 1.437 8.264A12 12 0 0 1 33.5 35c-1.733 0-3.103-.36-3.876-.627l1.437-8.26-.025.027.627-3.445-1.968-.358-1.186 6.525a1 1 0 0 1-1.489-1.058c.528-2.633.716-3.595.812-4.09l.002-.011c.094-.483.096-.495.269-1.292.181-.84.393-1.677.723-2.387.337-.724.834-1.395 1.627-1.794.39-.196.784-.23 1.069-.23h3.476"
    clip-rule="evenodd"
  />
  <path d="M30.285 41.913A1.5 1.5 0 0 1 29 40.43V38c1.305.18 2.507.29 3.682.335l-.744 2.518a1.5 1.5 0 0 1-1.653 1.06" />
  <path d="m34.265 38.354.806 2.53A1.5 1.5 0 0 0 38 40.428v-2.336c-1.31.157-2.527.245-3.735.262" />
</svg>
